X: 30203
T: Old Grey Gander, The
R: reel
M: 4/4
K: Adorian
AG|S EAAB {d}c2 BA|{c}BAGB {e}dBAG|EAAB {d}cBcd|gedB (3cBA BG|
EAAB {d}c2 BA|{c}BAGB dBAG|EAAB {d}c3 A|BdgB {c}BA A2||
a{b}a{g}aa aged|(3Bcd ef g2 ed|eaaa {b}agef|{a}gedB BA A2|
{b}agab aged|(3Bcd ef g2 fg|afge fdef|{a}gedB {c}BAAGS||

